X:183
T:The Highlander's Jig
R:Jig
M:6/8
L:1/8
K:A % 3 sharps
D|"A"c2e ece|"D"fdf "A"ecA|"A"c2e efvg|"G"BVGB (B2 d)|\
"A"c2e ece|"D"cec "E7"dBG|"A"ABA A2:||\
G|"F#m"a2f "E"g2e|"D"fdf "A"ecA|"F#m"a2f "G"vg2d|"G"BvGB "E7"B2^g|\
"F#m"a2f "E"g2e|"D"fdf "A"ecA|"A"cec "E7"dBG|ABA A2:||

%  <A name="D1X184"></A>

